X:1
T:Title
%%score { ( 1 3 ) | 2 }
L:1/8
M:6/8
K:Ab
V:1 treble nm="Grand Piano"
V:3 treble 
V:2 bass 
V:1
 z3 z2[Q:1/4=100] [CE] | [CA][CA][CA] [Ec][DB][CA] | G B2- B2 c | ddd [Gd][Ge][Gd] | c3- c2 E | %5
 [CA][CA][CA] [Ec][DB][CA] | G B2- B2 B | [Ec][DB][CA] [FA][EG][=DF] | E3- E2 E | EGG GBB | %10
 [DB] [CA]2- [CA]2 [CA] | [FA][Fd][Fd] ded | c3- c2 B | [CA][Ec][Ec] [Ec][_Ge][Ge] | %14
 [_Ge] [Fd]2- [Fd]2 [Fd] | [Fd]cB BAG | [CEA]6 | z e2- e3 | z B2- B3 | cBA AGA | B6 | z c2- c3 | %22
 .[Fd]2 D D3 | GFE EFG |[M:5/8] [CA]-[CA]- [CA]3 |] %25
V:2
 z3 z2 [A,,A,] | [A,,E,][A,,E,][A,,E,] [A,,E,][A,,E,][A,,E,] | [E,B,] [E,G,E]2- [E,G,E]2 [A,E] | %3
 [G,B,E][G,B,E][G,B,E] [E,B,][E,C][E,B,] | [A,A]3- [A,A]2[K:bass] E, | %5
 [A,,E,][A,,E,][A,,E,] [A,,E,][A,,E,][A,,E,] | [E,B,] [E,G,E]2- [E,G,E]2 [E,G,E] | %7
 [A,,A,][A,,E,][A,,E,] [B,,=D,][B,,E,][B,,A,] | [E,G,]3- [E,G,]2 [E,G,] | %9
 [E,G,D][E,B,D][E,B,D] [E,B,D][E,G,D][E,G,D] | [A,,E,] [A,,A,]2- [A,,A,]2 [A,,A,] | %11
 [D,A,][D,A,][D,A,] [E,G,E][E,G,E][E,G,E] | [A,E]3- [A,E]2 [E,G,D] | %13
 [A,,A,][A,,A,][A,,A,] [A,,A,][A,,C][C,A,] | [D,A,] [D,A,]2- [D,A,]2 [D,A,] | %15
 [E,G,][E,G,E][E,G,E] [E,DE][E,CE][E,B,E] | A,,6 | A,,C,[E,C] [A,C][E,C][C,A,] | %18
 [E,B,][K:treble][G,DG][B,D] [E,D]3 | [A,CA][A,CE][K:bass][A,CE] [F,B,=D][F,B,D][F,A,D] | %20
 [E,G,D]6 | [A,C][E,A,E][C,A,] [A,,A,][A,,A,][A,,A,] | [D,A,][F,A,D]A, [D,A,]3 | %23
 [E,G,D][E,G,D][E,G,D] [E,G,D][E,A,D][E,B,D] |[M:5/8] [A,,A,]-[A,,A,]- [A,,A,]3 |] %25
V:3
 x6 | x6 | x6 | x6 | x6 | x6 | x6 | x6 | x6 | x6 | x6 | x6 | x6 | x6 | x6 | x6 | x6 | %17
 [EAc][EA]A AAA | .[Gd]2 G G3 | x6 | x6 | .A2 E E_GG | z F2- F3 | x6 |[M:5/8] x5 |] %25

